images/logo-4.svg

<svg width="84" height="51" viewBox="0 0 84 51" fill="none" xmlns="http://www.w3.org/2000/svg">
<g filter="url(#filter0_d)">
<path d="M16.402 12.8306H16.3992C14.1369 12.8306 12.303 14.6177 12.303 16.8223V16.8249C12.303 19.0295 14.1369 20.8167 16.3992 20.8167H16.402C18.6643 20.8167 20.4982 19.0295 20.4982 16.8249V16.8223C20.4982 14.6177 18.6643 12.8306 16.402 12.8306Z" fill="#2196F3"/>
<path d="M46.6368 11.5545C46.6304 8.49242 45.3795 5.55752 43.1579 3.39207C40.9363 1.22661 37.925 0.00695286 34.7828 0V0C31.6397 0.00556265 28.6269 1.22461 26.4041 3.39022C24.1814 5.55582 22.9298 8.49151 22.9233 11.5545V28.4402C22.9233 28.4402 46.6341 25.8667 46.6368 11.5571V11.5545Z" fill="#2196F3"/>
<path d="M4 33.9823C4.0057 36.1129 4.87656 38.1547 6.42228 39.6615C7.96799 41.1683 10.0629 42.0177 12.2492 42.0239C14.4351 42.0177 16.5296 41.1687 18.0752 39.6625C19.6209 38.1562 20.492 36.1151 20.4985 33.9849V22.2356C20.4985 22.2356 4 24.0276 4 33.9823ZM12.2492 36.0874C11.822 36.0874 11.4043 35.964 11.0491 35.7326C10.6938 35.5013 10.417 35.1726 10.2535 34.7879C10.09 34.4032 10.0472 33.98 10.1305 33.5716C10.2139 33.1632 10.4196 32.7881 10.7217 32.4937C11.0239 32.1993 11.4088 31.9988 11.8278 31.9176C12.2468 31.8364 12.6812 31.8781 13.0759 32.0374C13.4706 32.1967 13.808 32.4665 14.0454 32.8127C14.2827 33.1589 14.4094 33.5659 14.4094 33.9823C14.4105 34.2594 14.3554 34.534 14.2473 34.7903C14.1392 35.0466 13.9803 35.2796 13.7796 35.476C13.5789 35.6723 13.3404 35.828 13.0778 35.9343C12.8152 36.0406 12.5336 36.0953 12.2492 36.0953V36.0874Z" fill="#2196F3"/>
<path d="M29.0891 34.7812H27.4016V36.5244H26.5227V32.2588H29.3V32.9707H27.4016V34.0723H29.0891V34.7812ZM33.3137 34.4883C33.3137 34.9082 33.2395 35.2764 33.0911 35.5928C32.9426 35.9092 32.7297 36.1533 32.4524 36.3252C32.177 36.4971 31.8606 36.583 31.5032 36.583C31.1497 36.583 30.8342 36.498 30.5569 36.3281C30.2795 36.1582 30.0647 35.916 29.9124 35.6016C29.76 35.2852 29.6829 34.9219 29.6809 34.5117V34.3008C29.6809 33.8809 29.7561 33.5117 29.9065 33.1934C30.0588 32.873 30.2727 32.6279 30.5481 32.458C30.8254 32.2861 31.1418 32.2002 31.4973 32.2002C31.8528 32.2002 32.1682 32.2861 32.4436 32.458C32.7209 32.6279 32.9348 32.873 33.0852 33.1934C33.2375 33.5117 33.3137 33.8799 33.3137 34.2979V34.4883ZM32.4231 34.2949C32.4231 33.8477 32.343 33.5078 32.1829 33.2754C32.0227 33.043 31.7942 32.9268 31.4973 32.9268C31.2024 32.9268 30.9749 33.042 30.8147 33.2725C30.6545 33.501 30.5735 33.8369 30.5715 34.2803V34.4883C30.5715 34.9238 30.6516 35.2617 30.8118 35.502C30.9719 35.7422 31.2024 35.8623 31.5032 35.8623C31.7981 35.8623 32.0247 35.7471 32.1829 35.5166C32.3411 35.2842 32.4211 34.9463 32.4231 34.5029V34.2949ZM36.1643 35.4053C36.1643 35.2393 36.1057 35.1123 35.9885 35.0244C35.8713 34.9346 35.6604 34.8408 35.3557 34.7432C35.051 34.6436 34.8098 34.5459 34.6321 34.4502C34.1477 34.1885 33.9055 33.8359 33.9055 33.3926C33.9055 33.1621 33.97 32.957 34.0989 32.7773C34.2297 32.5957 34.4163 32.4541 34.6584 32.3525C34.9026 32.251 35.176 32.2002 35.4788 32.2002C35.7834 32.2002 36.0549 32.2559 36.2932 32.3672C36.5315 32.4766 36.7161 32.6318 36.8469 32.833C36.9797 33.0342 37.0461 33.2627 37.0461 33.5186H36.1672C36.1672 33.3232 36.1057 33.1719 35.9827 33.0645C35.8596 32.9551 35.6868 32.9004 35.4641 32.9004C35.2493 32.9004 35.0823 32.9463 34.9631 33.0381C34.844 33.1279 34.7844 33.2471 34.7844 33.3955C34.7844 33.5342 34.8538 33.6504 34.9924 33.7441C35.1331 33.8379 35.3391 33.9258 35.6106 34.0078C36.1106 34.1582 36.4749 34.3447 36.7034 34.5674C36.9319 34.79 37.0461 35.0674 37.0461 35.3994C37.0461 35.7686 36.9065 36.0586 36.6272 36.2695C36.3479 36.4785 35.9719 36.583 35.4993 36.583C35.1711 36.583 34.8723 36.5234 34.6028 36.4043C34.3333 36.2832 34.1272 36.1182 33.9846 35.9092C33.844 35.7002 33.7737 35.458 33.7737 35.1826H34.6555C34.6555 35.6533 34.9368 35.8887 35.4993 35.8887C35.7083 35.8887 35.8713 35.8467 35.9885 35.7627C36.1057 35.6768 36.1643 35.5576 36.1643 35.4053ZM40.8547 32.9707H39.5481V36.5244H38.6692V32.9707H37.3801V32.2588H40.8547V32.9707ZM43.925 34.6758H42.2375V35.8184H44.218V36.5244H41.3586V32.2588H44.2122V32.9707H42.2375V33.9873H43.925V34.6758ZM46.3127 34.9629H45.6125V36.5244H44.7336V32.2588H46.3186C46.8225 32.2588 47.2112 32.3711 47.4846 32.5957C47.7581 32.8203 47.8948 33.1377 47.8948 33.5479C47.8948 33.8389 47.8313 34.082 47.7043 34.2773C47.5793 34.4707 47.3889 34.625 47.1331 34.7402L48.0559 36.4834V36.5244H47.1125L46.3127 34.9629ZM45.6125 34.251H46.3215C46.5422 34.251 46.7131 34.1953 46.8342 34.084C46.9553 33.9707 47.0159 33.8154 47.0159 33.6182C47.0159 33.417 46.9583 33.2588 46.843 33.1436C46.7297 33.0283 46.5549 32.9707 46.3186 32.9707H45.6125V34.251ZM50.9387 35.0215V36.5244H50.0598V32.2588H51.7239C52.0442 32.2588 52.3254 32.3174 52.5676 32.4346C52.8118 32.5518 52.9993 32.7188 53.1301 32.9355C53.261 33.1504 53.3264 33.3955 53.3264 33.6709C53.3264 34.0889 53.1829 34.4189 52.8958 34.6611C52.6106 34.9014 52.2151 35.0215 51.7092 35.0215H50.9387ZM50.9387 34.3096H51.7239C51.9563 34.3096 52.1331 34.2549 52.2542 34.1455C52.3772 34.0361 52.4387 33.8799 52.4387 33.6768C52.4387 33.4678 52.3772 33.2988 52.2542 33.1699C52.1311 33.041 51.9612 32.9746 51.7444 32.9707H50.9387V34.3096ZM56.4993 34.6758H54.8118V35.8184H56.7922V36.5244H53.9329V32.2588H56.7864V32.9707H54.8118V33.9873H56.4993V34.6758ZM60.5774 32.9707H59.2708V36.5244H58.3918V32.9707H57.1028V32.2588H60.5774V32.9707ZM63.6477 34.6758H61.9602V35.8184H63.9407V36.5244H61.0813V32.2588H63.9348V32.9707H61.9602V33.9873H63.6477V34.6758ZM66.0354 34.9629H65.3352V36.5244H64.4563V32.2588H66.0413C66.5452 32.2588 66.9338 32.3711 67.2073 32.5957C67.4807 32.8203 67.6174 33.1377 67.6174 33.5479C67.6174 33.8389 67.554 34.082 67.427 34.2773C67.302 34.4707 67.1116 34.625 66.8557 34.7402L67.7786 36.4834V36.5244H66.8352L66.0354 34.9629ZM65.3352 34.251H66.0442C66.2649 34.251 66.4358 34.1953 66.5569 34.084C66.678 33.9707 66.7385 33.8154 66.7385 33.6182C66.7385 33.417 66.6809 33.2588 66.5657 33.1436C66.4524 33.0283 66.2776 32.9707 66.0413 32.9707H65.3352V34.251ZM70.5002 35.4053C70.5002 35.2393 70.4417 35.1123 70.3245 35.0244C70.2073 34.9346 69.9963 34.8408 69.6917 34.7432C69.387 34.6436 69.1458 34.5459 68.968 34.4502C68.4836 34.1885 68.2415 33.8359 68.2415 33.3926C68.2415 33.1621 68.3059 32.957 68.4348 32.7773C68.5657 32.5957 68.7522 32.4541 68.9944 32.3525C69.2385 32.251 69.512 32.2002 69.8147 32.2002C70.1194 32.2002 70.3909 32.2559 70.6292 32.3672C70.8674 32.4766 71.052 32.6318 71.1829 32.833C71.3157 33.0342 71.3821 33.2627 71.3821 33.5186H70.5032C70.5032 33.3232 70.4417 33.1719 70.3186 33.0645C70.1956 32.9551 70.0227 32.9004 69.8 32.9004C69.5852 32.9004 69.4182 32.9463 69.2991 33.0381C69.1799 33.1279 69.1204 33.2471 69.1204 33.3955C69.1204 33.5342 69.1897 33.6504 69.3284 33.7441C69.469 33.8379 69.675 33.9258 69.9465 34.0078C70.4465 34.1582 70.8108 34.3447 71.0393 34.5674C71.2678 34.79 71.3821 35.0674 71.3821 35.3994C71.3821 35.7686 71.2424 36.0586 70.9631 36.2695C70.6838 36.4785 70.3079 36.583 69.8352 36.583C69.5071 36.583 69.2083 36.5234 68.9387 36.4043C68.6692 36.2832 68.4631 36.1182 68.3206 35.9092C68.1799 35.7002 68.1096 35.458 68.1096 35.1826H68.9915C68.9915 35.6533 69.2727 35.8887 69.8352 35.8887C70.0442 35.8887 70.2073 35.8467 70.3245 35.7627C70.4417 35.6768 70.5002 35.5576 70.5002 35.4053Z" fill="#2196F3"/>
</g>
<defs>
<filter id="filter0_d" x="0" y="0" width="75.3821" height="50.0239" filterUnits="userSpaceOnUse" color-interpolation-filters="sRGB">
<feFlood flood-opacity="0" result="BackgroundImageFix"/>
<feColorMatrix in="SourceAlpha" type="matrix" values="0 0 0 0 0 0 0 0 0 0 0 0 0 0 0 0 0 0 127 0"/>
<feOffset dy="4"/>
<feGaussianBlur stdDeviation="2"/>
<feColorMatrix type="matrix" values="0 0 0 0 0 0 0 0 0 0 0 0 0 0 0 0 0 0 0.25 0"/>
<feBlend mode="normal" in2="BackgroundImageFix" result="effect1_dropShadow"/>
<feBlend mode="normal" in="SourceGraphic" in2="effect1_dropShadow" result="shape"/>
</filter>
</defs>
</svg>

<svg width="84" height="51" fill="none" xmlns="http://www.w3.org/2000/svg"><g filter="url(#filter0_d)" fill="#2196F3"><path d="M16.402 12.83h-.003c-2.262 0-4.096 1.788-4.096 3.992v.003c0 2.204 1.834 3.992 4.096 3.992h.003c2.262 0 4.096-1.788 4.096-3.992v-.003c0-2.204-1.834-3.991-4.096-3.991zM46.637 11.555c-.007-3.063-1.258-5.997-3.48-8.163C40.938 1.227 37.926.007 34.784 0c-3.143.006-6.156 1.225-8.379 3.39-2.223 2.166-3.474 5.102-3.48 8.165V28.44s23.71-2.573 23.713-16.883v-.002zM4 33.982a7.96 7.96 0 002.422 5.68 8.384 8.384 0 005.827 2.362 8.384 8.384 0 005.826-2.361 7.96 7.96 0 002.424-5.678v-11.75S4 24.029 4 33.983zm8.25 2.105a2.2 2.2 0 01-1.2-.354 2.117 2.117 0 01-.796-.945 2.056 2.056 0 01-.123-1.216 2.09 2.09 0 01.59-1.078 2.179 2.179 0 011.107-.576c.419-.082.853-.04 1.248.12.395.159.732.429.97.775a2.068 2.068 0 01.201 1.977c-.108.257-.267.49-.467.686-.201.196-.44.352-.702.458a2.21 2.21 0 01-.829.161v-.008zM29.09 34.781h-1.688v1.743h-.88V32.26H29.3v.712h-1.898v1.101h1.687v.71zm4.224-.293c0 .42-.075.788-.223 1.105-.148.316-.361.56-.639.732a1.755 1.755 0 01-.949.258 1.694 1.694 0 01-1.59-.981 2.511 2.511 0 01-.232-1.09V34.3c0-.42.075-.79.226-1.108.152-.32.366-.565.641-.735.277-.172.594-.258.95-.258.355 0 .67.086.946.258.277.17.49.415.641.735.152.319.229.687.229 1.105v.19zm-.89-.193c0-.447-.081-.787-.241-1.02a.783.783 0 00-.686-.348.782.782 0 00-.682.346c-.16.228-.242.564-.244 1.007v.208c0 .436.08.774.24 1.014.16.24.391.36.692.36a.775.775 0 00.68-.345c.158-.233.238-.57.24-1.014v-.208zm3.74 1.11a.447.447 0 00-.175-.38c-.118-.09-.329-.184-.633-.282a4.56 4.56 0 01-.724-.293c-.484-.262-.726-.614-.726-1.057 0-.23.064-.436.193-.616.13-.181.317-.323.56-.425.244-.101.517-.152.82-.152.304 0 .576.056.814.167.239.11.423.265.554.466.133.201.2.43.2.686h-.88c0-.196-.061-.347-.184-.454-.123-.11-.296-.165-.519-.165-.215 0-.382.046-.5.138a.426.426 0 00-.18.358c0 .138.07.254.208.348.141.094.347.182.619.264.5.15.864.337 1.092.56.229.222.343.5.343.831 0 .37-.14.66-.419.87-.28.21-.655.314-1.128.314-.328 0-.627-.06-.896-.179a1.439 1.439 0 01-.618-.495 1.27 1.27 0 01-.211-.726h.882c0 .47.28.706.843.706.21 0 .372-.042.49-.126a.418.418 0 00.175-.358zm4.69-2.434h-1.306v3.553h-.879v-3.553H37.38v-.712h3.475v.712zm3.071 1.705h-1.688v1.142h1.981v.706h-2.86V32.26h2.854v.712h-1.975v1.016h1.688v.689zm2.388.287h-.7v1.561h-.88V32.26h1.586c.503 0 .892.112 1.166.337.273.224.41.542.41.952 0 .29-.064.534-.19.73a1.282 1.282 0 01-.572.462l.923 1.743v.041h-.944l-.8-1.561zm-.7-.712h.709c.22 0 .391-.056.512-.167a.607.607 0 00.182-.466c0-.201-.058-.36-.173-.474-.113-.116-.288-.173-.524-.173h-.707v1.28zm5.326.77v1.503h-.88V32.26h1.665c.32 0 .601.058.844.176.244.117.431.284.562.5.131.215.196.46.196.736 0 .418-.143.748-.43.99-.285.24-.68.36-1.187.36h-.77zm0-.711h.785c.232 0 .41-.055.53-.165.123-.109.185-.265.185-.468a.704.704 0 00-.185-.507c-.123-.129-.293-.195-.51-.2h-.805v1.34zm5.56.366h-1.687v1.142h1.98v.706h-2.86V32.26h2.854v.712h-1.974v1.016h1.687v.689zm4.078-1.705h-1.306v3.553h-.88v-3.553h-1.288v-.712h3.474v.712zm3.07 1.705H61.96v1.142h1.98v.706h-2.859V32.26h2.854v.712H61.96v1.016h1.688v.689zm2.388.287h-.7v1.561h-.879V32.26h1.585c.504 0 .893.112 1.166.337.274.224.41.542.41.952 0 .29-.063.534-.19.73a1.282 1.282 0 01-.571.462l.923 1.743v.041h-.944l-.8-1.561zm-.7-.712h.71c.22 0 .39-.056.512-.167a.607.607 0 00.181-.466c0-.201-.057-.36-.172-.474-.114-.116-.288-.173-.525-.173h-.706v1.28zm5.165 1.154a.447.447 0 00-.175-.38c-.118-.09-.329-.184-.633-.282a4.565 4.565 0 01-.724-.293c-.484-.262-.727-.614-.727-1.057 0-.23.065-.436.194-.616.13-.181.317-.323.56-.425.243-.101.517-.152.82-.152.304 0 .576.056.814.167.238.11.423.265.554.466.133.201.2.43.2.686h-.88c0-.196-.061-.347-.184-.454-.123-.11-.296-.165-.519-.165-.215 0-.382.046-.5.138a.426.426 0 00-.18.358c0 .138.07.254.208.348.141.094.347.182.618.264.5.15.865.337 1.093.56.229.222.343.5.343.831 0 .37-.14.66-.419.87-.28.21-.655.314-1.128.314-.328 0-.627-.06-.896-.179a1.438 1.438 0 01-.618-.495 1.27 1.27 0 01-.211-.726h.882c0 .47.28.706.843.706.21 0 .372-.042.49-.126a.418.418 0 00.175-.358z"/></g><defs><filter id="filter0_d" x="0" y="0" width="75.382" height="50.024" filterUnits="userSpaceOnUse" color-interpolation-filters="sRGB"><feFlood flood-opacity="0" result="BackgroundImageFix"/><feColorMatrix in="SourceAlpha" values="0 0 0 0 0 0 0 0 0 0 0 0 0 0 0 0 0 0 127 0"/><feOffset dy="4"/><feGaussianBlur stdDeviation="2"/><feColorMatrix values="0 0 0 0 0 0 0 0 0 0 0 0 0 0 0 0 0 0 0.25 0"/><feBlend in2="BackgroundImageFix" result="effect1_dropShadow"/><feBlend in="SourceGraphic" in2="effect1_dropShadow" result="shape"/></filter></defs></svg>
